X: 30995
T: Paardeburg, The
R: march
M: 
K: Dmajor
M:2/4
|:a/g/|f2 g/>f/e/>f/|Ad de/f/|g>e ce/c/|Aa a/>g/f/<a/|
f2 g/>f/e/>f/|Ad de/f/|g>A c/<A/c/<e/|d2 d:|
|:c/d/|e>f g/>e/c/<e/|Ad de/f/|gA ce|d/>c/d/<f/ Ac/d/|
e>f g/>e/c/<e/|Ad de/f/|g>A c/<A/c/<e/|d2 d:|
|:a/g/|fA dA|d/>c/d/>e/ f2|gA ce|d/>c/d/<f/ Aa/g/|
fA dA|d/>c/d/>e/ f2|g>A c/<A/c/<e/|d2 d:|
|:a/g/|f/<a/d/<f/ Ad|f/>d/f/>g/ ag/e/|g/>e/c/<e/ Ae|d/>c/d/>f/ Aa/g/|
f/<a/d/<f/ Ad|f/>d/f/>g/ ag/e/|g>A c/<A/c/<e/|d2 d:|

